src/assets/selectIcons/varie_3.svg

<svg xmlns="http://www.w3.org/2000/svg" viewBox="0 0 512 512"><path d="M0 0h512v512H0z"/><path fill="#fff" d="M256 41c-43.696 0-83.28 3.58-111.37 9.197-14.047 2.81-25.26 6.196-32.21 9.483-3.476 1.643-5.842 3.293-6.88 4.306l-.013.014.014.014c1.038 1.013 3.404 2.663 6.88 4.306 6.95 3.287 18.163 6.674 32.21 9.483C172.72 83.42 212.303 87 256 87s83.28-3.58 111.37-9.197c14.047-2.81 25.26-6.196 32.21-9.483 3.476-1.643 5.842-3.293 6.88-4.306l.013-.014-.014-.014c-1.038-1.013-3.404-2.663-6.88-4.306-6.95-3.287-18.163-6.674-32.21-9.483C339.28 44.58 299.697 41 256 41zm-80 15a32 8 0 0 1 32 8 32 8 0 0 1-32 8 32 8 0 0 1-32-8 32 8 0 0 1 32-8zm-75.168 26.594c-2.832 12.035-7.414 32.162-12.05 55.28 16.735 4.338 33.52 7.99 50.327 10.995 2.988-17.203 6.707-34.438 11.27-51.708-3.186-.547-6.3-1.113-9.282-1.71-14.91-2.98-27.13-6.49-36.37-10.86-1.363-.644-2.656-1.307-3.896-1.998zm310.336 0c-1.24.69-2.533 1.354-3.895 1.998-9.24 4.37-21.462 7.88-36.37 10.86-2.93.587-5.99 1.142-9.116 1.68 5.27 16.954 9.544 34.033 12.953 51.22 16.26-2.983 32.412-6.568 48.424-10.754-4.617-23-9.175-43.017-11.996-55.004zm-67.4 17.238c-23.065 2.982-49.9 4.803-78.768 5.117v54.198c30.885-.445 61.603-3.05 91.975-7.773-3.45-17.334-7.805-34.523-13.207-51.543zm-175.475.008c-4.647 17.345-8.416 34.67-11.426 51.98 30.062 4.54 60.16 6.967 90.133 7.354V104.95c-28.842-.314-55.656-2.133-78.707-5.11zm-84.38 55.277l-5.518 30.088c128.542 30.936 239.89 29.948 353.384.137l-4.98-30.172c-110.776 28.798-228.035 29.785-342.886-.053zm350.634 48.176c-16.95 4.406-33.876 8.174-50.83 11.312 3.656 47.603 1.776 95.87-3.55 144.49 18.6-3.803 36.796-8.527 54.468-14.17C439.592 314.762 439 291.606 439 256c0-14.915-1.77-33.334-4.453-52.707zm-357.13.256C74.758 222.827 73 241.15 73 256c0 23.794 4.678 57.228 10.424 89.404 16.604 4.828 33.386 8.97 50.27 12.418-4.532-47.516-6.03-95.247-2.577-143.222-17.624-3.063-35.507-6.74-53.7-11.05zm71.546 13.944c-3.336 47.978-1.63 95.883 3.164 143.813 31.553 5.49 63.348 8.592 94.873 9.33V225.94c-31.995-.576-64.57-3.38-98.037-8.446zm216.902.19c-33.303 5.275-66.792 8.068-100.865 8.34V370.8c32.816-.174 65.224-2.93 96.64-8.25 5.61-49.032 7.722-97.417 4.225-144.866zM86.66 364.93l8.29 31.9c104.15 32.39 225.75 32.428 326.077.733l8.272-32.264c-106.024 31.367-228.01 31.34-342.64-.37zm11.236 51.666c3.816 16.945 6.585 28.183 6.704 28.662.792 2.185 4.694 6.427 12.96 10.37 7.587 3.616 18.215 6.947 30.77 9.704-2.132-12.566-4.142-25.147-6.016-37.74-15.03-3.066-29.865-6.733-44.418-10.996zm318.366 1.31c-14.934 4.36-30.254 8.052-45.852 11.086-2.007 12.08-4.16 24.172-6.43 36.272 12.422-2.745 22.935-6.05 30.46-9.637 8.376-3.994 12.302-8.315 13.02-10.473 3.26-9.78 6.178-18.815 8.802-27.248zm-255.217 13.18c1.917 12.574 3.97 25.154 6.144 37.74 23.637 3.684 51.525 5.748 79.81 6.11V439.24c-28.815-.644-57.66-3.36-85.955-8.154zm190.55 1.223c-28.306 4.484-57.373 6.847-86.595 7.07v35.556c28.358-.363 56.317-2.437 79.994-6.14 2.33-12.19 4.538-24.353 6.602-36.487z"/></svg>

<?xml version="1.0" encoding="UTF-8" standalone="no"?>
<!DOCTYPE svg PUBLIC "-//W3C//DTD SVG 1.1//EN" "http://www.w3.org/Graphics/SVG/1.1/DTD/svg11.dtd">
<svg width="100%" height="100%" viewBox="0 0 512 512" version="1.1" xmlns="http://www.w3.org/2000/svg" xmlns:xlink="http://www.w3.org/1999/xlink" xml:space="preserve" xmlns:serif="http://www.serif.com/" style="fill-rule:evenodd;clip-rule:evenodd;stroke-linejoin:round;stroke-miterlimit:2;">
    <rect x="0" y="0" width="512" height="512" style="fill-rule:nonzero;"/>
    <path d="M256,41C212.304,41 172.72,44.58 144.63,50.197C130.583,53.007 119.37,56.393 112.42,59.68C108.944,61.323 106.578,62.973 105.54,63.986L105.527,64L105.541,64.014C106.579,65.027 108.945,66.677 112.421,68.32C119.371,71.607 130.584,74.994 144.631,77.803C172.72,83.42 212.303,87 256,87C299.697,87 339.28,83.42 367.37,77.803C381.417,74.993 392.63,71.607 399.58,68.32C403.056,66.677 405.422,65.027 406.46,64.014L406.473,64L406.459,63.986C405.421,62.973 403.055,61.323 399.579,59.68C392.629,56.393 381.416,53.006 367.369,50.197C339.28,44.58 299.697,41 256,41ZM176,56C193.555,56 208,59.611 208,64C208,68.389 193.555,72 176,72C158.445,72 144,68.389 144,64C144,59.611 158.445,56 176,56ZM100.832,82.594C98,94.629 93.418,114.756 88.782,137.874C105.517,142.212 122.302,145.864 139.109,148.869C142.097,131.666 145.816,114.431 150.379,97.161C147.193,96.614 144.079,96.048 141.097,95.451C126.187,92.471 113.967,88.961 104.727,84.591C103.364,83.947 102.071,83.284 100.831,82.593L100.832,82.594ZM411.168,82.594C409.928,83.284 408.635,83.948 407.273,84.592C398.033,88.962 385.811,92.472 370.903,95.452C367.973,96.039 364.913,96.594 361.787,97.132C367.057,114.086 371.331,131.165 374.74,148.352C391,145.369 407.152,141.784 423.164,137.598C418.547,114.598 413.989,94.581 411.168,82.594ZM343.768,99.832C320.703,102.814 293.868,104.635 265,104.949L265,159.147C295.885,158.702 326.603,156.097 356.975,151.374C353.525,134.04 349.17,116.851 343.768,99.831L343.768,99.832ZM168.293,99.84C163.646,117.185 159.877,134.51 156.867,151.82C186.929,156.36 217.027,158.787 247,159.174L247,104.95C218.158,104.636 191.344,102.817 168.293,99.84ZM83.913,155.117L78.395,185.205C206.937,216.141 318.285,215.153 431.779,185.342L426.799,155.17C316.023,183.968 198.764,184.955 83.913,155.117ZM434.547,203.293C417.597,207.699 400.671,211.467 383.717,214.605C387.373,262.208 385.493,310.475 380.167,359.095C398.767,355.292 416.963,350.568 434.635,344.925C439.592,314.762 439,291.606 439,256C439,241.085 437.23,222.666 434.547,203.293ZM77.417,203.549C74.758,222.827 73,241.15 73,256C73,279.794 77.678,313.228 83.424,345.404C100.028,350.232 116.81,354.374 133.694,357.822C129.162,310.306 127.664,262.575 131.117,214.6C113.493,211.537 95.61,207.86 77.417,203.55L77.417,203.549ZM148.963,217.493C145.627,265.471 147.333,313.376 152.127,361.306C183.68,366.796 215.475,369.898 247,370.636L247,225.94C215.005,225.364 182.43,222.56 148.963,217.494L148.963,217.493ZM365.865,217.683C332.562,222.958 299.073,225.751 265,226.023L265,370.8C297.816,370.626 330.224,367.87 361.64,362.55C367.25,313.518 369.362,265.133 365.865,217.684L365.865,217.683ZM86.66,364.93L94.95,396.83C199.1,429.22 320.7,429.258 421.027,397.563L429.299,365.299C323.275,396.666 201.289,396.639 86.659,364.929L86.66,364.93ZM97.896,416.596C101.712,433.541 104.481,444.779 104.6,445.258C105.392,447.443 109.294,451.685 117.56,455.628C125.147,459.244 135.775,462.575 148.33,465.332C146.198,452.766 144.188,440.185 142.314,427.592C127.284,424.526 112.449,420.859 97.896,416.596ZM416.262,417.906C401.328,422.266 386.008,425.958 370.41,428.992C368.403,441.072 366.25,453.164 363.98,465.264C376.402,462.519 386.915,459.214 394.44,455.627C402.816,451.633 406.742,447.312 407.46,445.154C410.72,435.374 413.638,426.339 416.262,417.906ZM161.045,431.086C162.962,443.66 165.015,456.24 167.189,468.826C190.826,472.51 218.714,474.574 246.999,474.936L246.999,439.24C218.184,438.596 189.339,435.88 161.044,431.086L161.045,431.086ZM351.595,432.309C323.289,436.793 294.222,439.156 265,439.379L265,474.935C293.358,474.572 321.317,472.498 344.994,468.795C347.324,456.605 349.532,444.442 351.596,432.308L351.595,432.309Z" style="fill:rgb(165,133,86);fill-rule:nonzero;"/>
</svg>
